X: 2024
T: Simons
M: 3/4
Q: 1/4=100
L: 1/8
K: Am
(G|:A)>B c<d e>(c | d)>e (3c(dc) B>(G | B)d/2B/2 (3c(ec) (3A(cA) | (3G(FE) D>d B>G |
A>B c<d e>(c | d)>e (3c(dc) B>(G | B)d/2B/2 (3c(ec) (3A(cA) |1 c2 c3 G :|2 c2 c3 (c |]
|: B<d) c2 G>(E | F)>G (3A(cA) (3G(FE) | D>C B,<C D>E | FG/2F/2 (3E(DC) D>B, |
   G,>(c B)<c G>E | F>G (3A(cA) (3G(FE) | D>C B,<C (3D(EF) |1 TFE C3 c :|2 FE C3 |]
(:musicend:)

[[!dublett]] av [[Musik/254|+]]
[[!Ackord]]
(:music:)
